X:1
T:Whenever I Think of Him
T:Whenever I Think of Him
T:Bentley DeForest Ackley
T:Ethel A. Barlow, 1915
T:Public Domain Courtesy of the Cyber Hymnal™
C:Bentley DeForest Ackley
Z:Public Domain
Z:Courtesy of the Cyber Hymnal™
%%score ( 1 2 ) ( 3 4 )
L:1/8
Q:1/4=130
M:6/4
K:Ab
V:1 treble 
V:2 treble 
V:3 bass 
V:4 bass 
V:1
 E2 | [Ec]2 [=D=B]2 [Ec]2 [F_d]4 [Ec]2 | [DB]2 [DA]8 [CA][EG] | [DF]2 [D=E]2 [DF]2 [Fd]4 [DF]2 | %4
w: 1.~The|cross that He gave is|hea- vy, And the|light on my path is|
w: 2.~I|stand on the mount of|prom- ise, Ris- ing|up from the vale of|
w: 3.~Some|day it will all be|o- ver; Then with|loved ones gone on be-|
 [CE]12 [CE][CE] | [C=E]4 [EG]2 [GB]2 [Ac]2 [GB]2 | [GB]2 [FA]8 [EA]2 | %7
w: dim, Yet I|feel a bless- èd as-|sur- ance, When-|
w: prayer; For my|soul is filled with His|good- ness, And|
w: fore, I will|join the saints and the|mar- tyrs, And|
 [=DA]2 [DG]2 [DA]2 [DB]4 [DA]2 | ([EG]6 [DF]4) x2 ||"^Refrain" E2 | %10
w: ev- er I think of|Him. *|~|
w: thoughts of His love and|care. *||
w: praise Him for- ev- er-|more. *||
 c2 G2 [CA]2 [DB]2 [FA]2 [DF]2 | E6- [CE]4 [CE]2 | [CE]2 [DF]2 [B,G]2 ([CA]2 [Fd]2) [Ec]2 | %13
w: ~ ~ when- ev- er I|think Him ~|~ ~ think of * Him|
w: |||
w: |||
 [DB]6- [DB]4 E2 x2 | [Ec]4 [Ec]2 [CA]2 [DB]2 [Ec]2 | [Fd]4 [E=A]2 [DB]4 [=D=B]2 | %16
w: He * fills|my soul with di- vine|con- trol, When- ev-|
w: |||
w: |||
 [Ec]2 [Ec]2 [Fd]2 [Ec]4 [DB]2 | [CA]6- [CA]4 |] %18
w: er I think of Him.||
w: ||
w: ||
V:2
 E2 | x12 | x12 | x12 | x14 | x12 | x12 | x12 | x12 || x2 | x12 | C4 C2 x6 | x12 | x10 E2 x2 | %14
w: |||||||||||* ~|||
 x12 | x12 | x12 | x10 |] %18
w: ||||
V:3
 E,2 | C2 =B,2 C2 D4 C2 | [E,B,]2 [F,A,]8 [C,A,]G, | F,2 =E,2 F,2 D4 F,2 | [A,,E,]12 E,E, | %5
w: ~|~ ~ ~ ~ ~|~ ~ ~ ~|~ ~ ~ ~ ~|~ ~ ~|
 =E,4 G,2 B,2 C2 B,2 | B,2 A,8 A,2 | A,2 G,2 A,2 B,4 A,2 | (G,6 F,4) x2 || E,2 | %10
w: ~ ~ ~ ~ ~|~ ~ ~|~ ~ ~ ~ ~|~ *|When-|
 C2 G,2 A,2 (B,2 A,2) [A,,F,]2 | E,6- E,4 E,2 | E,2 F,2 G,2 (A,2 D2) [A,C]2 | %13
w: ev- er I think * Him,|When- * ev-|er I think of * Him|
 B,6- (.[=D,A,]2 B,4) E,2 | [A,,A,C]4 [A,,A,C]2 A,2 B,2 [A,,A,C]2 | %15
w: ||
 [D,A,D]4 [F,=A,]2 [B,,F,B,]4 [=E,A,=B,]2 | [E,A,C]2 C2 D2 [G,C]4 B,2 | [A,,E,A,]6- [A,,E,A,]4 |] %18
w: |||
V:4
 E,2 | A,,12 | x12 | D,12 | x14 | C,12 | F,12 | B,,12 | E,12 || x2 | [A,,E,]6 [A,,-F,]4 x2 | %11
 A,,8 x4 | A,,6- A,,4 x2 | ([E,G,]4 [E,G,]6) x4 | x6 [A,,E,]4 x2 | x12 | x2 [E,-A,]4 E,6 | x10 |] %18

